**harmony	**harte	**kern	**silbe	**rhyme	**timestamp	**phrase	**leadinstrument
*M4/4	*M4/4	*ICvox	*	*	*	*	*
*	*	*VRlead	*	*	*	*	*
*	*	*Hstimme	*	*	*	*	*
*D:	*D:	*D:	*	*	*	*	*
*	*	*M4/4	*	*	*	*	*
*	*	*clefG2	*	*	*	*	*
1r;	1r	r;	.	.	0	.	r
1r;	1r	r;	.	.	0.046	.	r
=1	=1	=1	=1	=1	=1	=1	=1
*>Letter>A2	*>Letter>A2	*>Letter>A2	*>Letter>A2	*>Letter>A2	*>Letter>A2	*>Letter>A2	*>Letter>A2
*>Label>Intro	*>Label>Intro	*>Label>Intro	*>Label>Intro	*>Label>Intro	*>Label>Intro	*>Label>Intro	*>Label>Intro
1DM	D:maj	1r	.	.	0.255	newline	guitar
=2	=2	=2	=2	=2	=2	=2	=2
2AM	A:maj	1r	.	.	1.515	.	guitar
2GM	G:maj	.	.	.	2.145	.	guitar
=3	=3	=3	=3	=3	=3	=3	=3
1DM	D:maj	1r	.	.	2.775	.	guitar
=4	=4	=4	=4	=4	=4	=4	=4
1DM	D:maj	1r	.	.	4.035	.	guitar
=5	=5	=5	=5	=5	=5	=5	=5
*>Letter>A	*>Letter>A	*>Letter>A	*>Letter>A	*>Letter>A	*>Letter>A	*>Letter>A	*>Letter>A
*>Label>Verse	*>Label>Verse	*>Label>Verse	*>Label>Verse	*>Label>Verse	*>Label>Verse	*>Label>Verse	*>Label>Verse
1DM	D:maj	4f#	I	.	5.295	newline	voice
.	.	4f#	see	.	.	.	.
.	.	4r	.	.	.	.	.
.	.	4d	a	.	.	.	.
=6	=6	=6	=6	=6	=6	=6	=6
2AM	A:maj	4e	bad	.	6.545	.	voice
.	.	4d	_	.	.	.	.
2GM	G:maj	4e	moon	.	7.17	.	voice
.	.	8d	a	.	.	.	.
.	.	[8f#	ri-	(A	.	.	.
=7	=7	=7	=7	=7	=7	=7	=7
1DM	D:maj	8f#]	_	.	7.795	.	voice
.	.	4.d	-sin'.	a)	.	.	.
.	.	2r	.	.	.	.	.
=8	=8	=8	=8	=8	=8	=8	=8
1DM	D:maj	1r	.	.	9.045	.	voice
=9	=9	=9	=9	=9	=9	=9	=9
1DM	D:maj	4f#	I	.	10.295	.	voice
.	.	4f#	see	.	.	.	.
.	.	2r	.	.	.	.	.
=10	=10	=10	=10	=10	=10	=10	=10
2AM	A:maj	8e	trou-	.	11.545	.	voice
.	.	4d	-ble	.	.	.	.
.	.	8r	.	.	.	.	.
2GM	G:maj	4f#	on	.	12.17	.	voice
.	.	8d	the	.	.	.	.
.	.	[8d	way.	B	.	.	.
=11	=11	=11	=11	=11	=11	=11	=11
1DM	D:maj	4d]	_	.	12.795	.	voice
.	.	2r	.	.	.	.	.
.	.	4r	.	.	.	.	.
=12	=12	=12	=12	=12	=12	=12	=12
1DM	D:maj	1r	.	.	14.045	.	voice
=13	=13	=13	=13	=13	=13	=13	=13
1DM	D:maj	4f#	I	.	15.295	newline	voice
.	.	4f#	see	.	.	.	.
.	.	2r	.	.	.	.	.
=14	=14	=14	=14	=14	=14	=14	=14
2AM	A:maj	8e	earth-	.	16.541	.	voice
.	.	4.d	_	.	.	.	.
2GM	G:maj	4e	-quakes	.	17.164	.	voice
.	.	8d	and	.	.	.	.
.	.	[8f#	light-	(A	.	.	.
=15	=15	=15	=15	=15	=15	=15	=15
1DM	D:maj	8f#]	_	.	17.787	.	voice
.	.	4.d	-nin'.	a)	.	.	.
.	.	2r	.	.	.	.	.
=16	=16	=16	=16	=16	=16	=16	=16
1DM	D:maj	1r	.	.	19.033	.	voice
=17	=17	=17	=17	=17	=17	=17	=17
1DM	D:maj	4f#	I	.	20.279	.	voice
.	.	4f#	see	.	.	.	.
.	.	2r	.	.	.	.	.
=18	=18	=18	=18	=18	=18	=18	=18
2AM	A:maj	8e	bad	.	21.524	.	voice
.	.	4d	_	.	.	.	.
.	.	4.f#	times	.	.	.	.
2GM	G:maj	.	.	.	22.147	.	voice
.	.	8d	to-	.	.	.	.
.	.	[8d	-day.	B	.	.	.
=19	=19	=19	=19	=19	=19	=19	=19
1DM	D:maj	4d]	_	.	22.77	.	voice
.	.	2r	.	.	.	.	.
.	.	4r	.	.	.	.	.
=20	=20	=20	=20	=20	=20	=20	=20
1DM	D:maj	1r	.	.	24.016	.	voice
=21	=21	=21	=21	=21	=21	=21	=21
*>Letter>B	*>Letter>B	*>Letter>B	*>Letter>B	*>Letter>B	*>Letter>B	*>Letter>B	*>Letter>B
*>Label>Chorus	*>Label>Chorus	*>Label>Chorus	*>Label>Chorus	*>Label>Chorus	*>Label>Chorus	*>Label>Chorus	*>Label>Chorus
1GM	G:maj	4g	Don't	.	25.262	newline	voice
.	.	4g	go	.	.	.	.
.	.	4g	'round	.	.	.	.
.	.	8e	to-	.	.	.	.
.	.	[8d	-night.	A	.	.	.
=22	=22	=22	=22	=22	=22	=22	=22
1GM	G:maj	8d]	_	.	26.507	.	voice
.	.	8e	_	.	.	.	.
.	.	4r	.	.	.	.	.
.	.	8r	.	.	.	.	.
.	.	8d	Well	.	.	.	.
.	.	4d	it's	.	.	.	.
=23	=23	=23	=23	=23	=23	=23	=23
1DM	D:maj	4f#	bound	.	27.751	.	voice
.	.	8f#	to	.	.	.	.
.	.	4f#	take	.	.	.	.
.	.	4e	your	.	.	.	.
.	.	[8d	life.	A	.	.	.
=24	=24	=24	=24	=24	=24	=24	=24
1DM	D:maj	8d]	_	.	28.996	.	voice
.	.	8B	_	.	.	.	.
.	.	2r	.	.	.	.	.
.	.	4r	.	.	.	.	.
=25	=25	=25	=25	=25	=25	=25	=25
1AM	A:maj	2.e	There's	.	30.24	.	voice
.	.	8e	a	.	.	.	.
.	.	8e	bad	.	.	.	.
=26	=26	=26	=26	=26	=26	=26	=26
1GM	G:maj	8d	_	.	31.485	.	voice
.	.	4.d	moon	.	.	.	.
.	.	4d	on	.	.	.	.
.	.	8d	the	.	.	.	.
.	.	[8d	rise.	A	.	.	.
=27	=27	=27	=27	=27	=27	=27	=27
1DM	D:maj	4d]	_	.	32.729	.	voice
.	.	2r	.	.	.	.	.
.	.	4r	.	.	.	.	.
=28	=28	=28	=28	=28	=28	=28	=28
1DM	D:maj	1r	.	.	33.974	.	voice
=29	=29	=29	=29	=29	=29	=29	=29
*>Letter>A	*>Letter>A	*>Letter>A	*>Letter>A	*>Letter>A	*>Letter>A	*>Letter>A	*>Letter>A
*>Label>Verse	*>Label>Verse	*>Label>Verse	*>Label>Verse	*>Label>Verse	*>Label>Verse	*>Label>Verse	*>Label>Verse
1DM	D:maj	4f#	I	.	35.218	newline	voice
.	.	4f#	hear	.	.	.	.
.	.	2r	.	.	.	.	.
=30	=30	=30	=30	=30	=30	=30	=30
2AM	A:maj	8e	hur-	.	36.46	.	voice
.	.	4d	-ri-	.	.	.	.
.	.	4.e	-canes	.	.	.	.
2GM	G:maj	.	.	.	37.081	.	voice
.	.	8d	a	.	.	.	.
.	.	[8f#	blow	(C	.	.	.
=31	=31	=31	=31	=31	=31	=31	=31
1DM	D:maj	8f#]	_	.	37.702	.	voice
.	.	4.d	in'.	c)	.	.	.
.	.	2r	.	.	.	.	.
=32	=32	=32	=32	=32	=32	=32	=32
1DM	D:maj	1r	.	.	38.944	.	voice
=33	=33	=33	=33	=33	=33	=33	=33
1DM	D:maj	4f#	I	.	40.186	.	voice
.	.	2f#	know	.	.	.	.
.	.	8d	the	.	.	.	.
.	.	[8e	end	.	.	.	.
=34	=34	=34	=34	=34	=34	=34	=34
2AM	A:maj	4e]	_	.	41.428	.	voice
.	.	4d	is	.	.	.	.
2GM	G:maj	8f#	co-	.	42.049	.	voice
.	.	4d	-min'	.	.	.	.
.	.	[8d	soon.	D	.	.	.
=35	=35	=35	=35	=35	=35	=35	=35
1DM	D:maj	4d]	_	.	42.67	.	voice
.	.	2r	.	.	.	.	.
.	.	4r	.	.	.	.	.
=36	=36	=36	=36	=36	=36	=36	=36
1DM	D:maj	1r	.	.	43.912	.	voice
=37	=37	=37	=37	=37	=37	=37	=37
1DM	D:maj	4f#	I	.	45.154	newline	voice
.	.	4f#	fear	.	.	.	.
.	.	2r	.	.	.	.	.
=38	=38	=38	=38	=38	=38	=38	=38
2AM	A:maj	8e	ri-	.	46.39	.	voice
.	.	8d	-vers	.	.	.	.
.	.	4r	.	.	.	.	.
2GM	G:maj	4e	o-	.	47.009	.	voice
.	.	8d	-ver-	.	.	.	.
.	.	[8f#	-flow-	(C	.	.	.
=39	=39	=39	=39	=39	=39	=39	=39
1DM	D:maj	8f#]	_	.	47.627	.	voice
.	.	4.d	-in'.	c)	.	.	.
.	.	2r	.	.	.	.	.
=40	=40	=40	=40	=40	=40	=40	=40
1DM	D:maj	1r	.	.	48.864	.	voice
=41	=41	=41	=41	=41	=41	=41	=41
1DM	D:maj	4f#	I	.	50.1	.	voice
.	.	2f#	hear	.	.	.	.
.	.	8d	the	.	.	.	.
.	.	[8e	voice	.	.	.	.
=42	=42	=42	=42	=42	=42	=42	=42
2AM	A:maj	4e]	_	.	51.337	.	voice
.	.	8d	of	.	.	.	.
.	.	4.f#	rage	.	.	.	.
2GM	G:maj	.	.	.	51.955	.	voice
.	.	8d	and	.	.	.	.
.	.	[8d	ru-	(D	.	.	.
=43	=43	=43	=43	=43	=43	=43	=43
1DM	D:maj	8d]	_	.	52.573	.	voice
.	.	4.d	-in.	d)	.	.	.
.	.	2r	.	.	.	.	.
=44	=44	=44	=44	=44	=44	=44	=44
1DM	D:maj	1r	.	.	53.81	.	voice
=45	=45	=45	=45	=45	=45	=45	=45
*>Letter>B	*>Letter>B	*>Letter>B	*>Letter>B	*>Letter>B	*>Letter>B	*>Letter>B	*>Letter>B
*>Label>Chorus	*>Label>Chorus	*>Label>Chorus	*>Label>Chorus	*>Label>Chorus	*>Label>Chorus	*>Label>Chorus	*>Label>Chorus
1GM	G:maj	4g	Don't	.	55.046	newline	voice
.	.	4g	go	.	.	.	.
.	.	4g	'round	.	.	.	.
.	.	8e	to-	.	.	.	.
.	.	[8d	-night.	A	.	.	.
=46	=46	=46	=46	=46	=46	=46	=46
1GM	G:maj	8d]	_	.	56.28	.	voice
.	.	8e	_	.	.	.	.
.	.	4r	.	.	.	.	.
.	.	8r	.	.	.	.	.
.	.	8d	Well	.	.	.	.
.	.	4d	it's	.	.	.	.
=47	=47	=47	=47	=47	=47	=47	=47
1DM	D:maj	4f#	bound	.	57.514	.	voice
.	.	8f#	to	.	.	.	.
.	.	4f#	take	.	.	.	.
.	.	4e	your	.	.	.	.
.	.	[8d	life.	A	.	.	.
=48	=48	=48	=48	=48	=48	=48	=48
1DM	D:maj	8d]	_	.	58.748	.	voice
.	.	8B	_	.	.	.	.
.	.	2r	.	.	.	.	.
.	.	4r	.	.	.	.	.
=49	=49	=49	=49	=49	=49	=49	=49
1AM	A:maj	2.e	There's	.	59.982	.	voice
.	.	8e	a	.	.	.	.
.	.	8e	bad	.	.	.	.
=50	=50	=50	=50	=50	=50	=50	=50
1GM	G:maj	8d	_	.	61.216	.	voice
.	.	4d	moon	.	.	.	.
.	.	8r	.	.	.	.	.
.	.	4d	on	.	.	.	.
.	.	8d	the	.	.	.	.
.	.	[8d	rise.	A	.	.	.
=51	=51	=51	=51	=51	=51	=51	=51
1DM	D:maj	2d]	_	.	62.45	.	voice
.	.	2r	.	.	.	.	.
=52	=52	=52	=52	=52	=52	=52	=52
1DM	D:maj	4r	.	.	63.684	.	voice
.	.	2d	Al-	.	.	.	.
.	.	4d	-right!.	.	.	.	.
=53	=53	=53	=53	=53	=53	=53	=53
*>Letter>A2	*>Letter>A2	*>Letter>A2	*>Letter>A2	*>Letter>A2	*>Letter>A2	*>Letter>A2	*>Letter>A2
*>Label>Solo	*>Label>Solo	*>Label>Solo	*>Label>Solo	*>Label>Solo	*>Label>Solo	*>Label>Solo	*>Label>Solo
1DM	D:maj	1r	.	.	64.918	newline	guitar
=54	=54	=54	=54	=54	=54	=54	=54
2AM	A:maj	1r	.	.	66.134	.	guitar
2GM	G:maj	.	.	.	66.743	.	guitar
=55	=55	=55	=55	=55	=55	=55	=55
1DM	D:maj	1r	.	.	67.351	.	guitar
=56	=56	=56	=56	=56	=56	=56	=56
1DM	D:maj	1r	.	.	68.568	.	guitar
=57	=57	=57	=57	=57	=57	=57	=57
1DM	D:maj	1r	.	.	69.785	.	guitar
=58	=58	=58	=58	=58	=58	=58	=58
2AM	A:maj	1r	.	.	71.002	.	guitar
2GM	G:maj	.	.	.	71.61	.	guitar
=59	=59	=59	=59	=59	=59	=59	=59
1DM	D:maj	1r	.	.	72.219	.	guitar
=60	=60	=60	=60	=60	=60	=60	=60
1DM	D:maj	1r	.	.	73.435	.	guitar
=61	=61	=61	=61	=61	=61	=61	=61
*>Letter>B	*>Letter>B	*>Letter>B	*>Letter>B	*>Letter>B	*>Letter>B	*>Letter>B	*>Letter>B
*>Label>Chorus	*>Label>Chorus	*>Label>Chorus	*>Label>Chorus	*>Label>Chorus	*>Label>Chorus	*>Label>Chorus	*>Label>Chorus
1GM	G:maj	1r	.	.	74.652	newline	guitar
=62	=62	=62	=62	=62	=62	=62	=62
1GM	G:maj	1r	.	.	75.906	.	guitar
=63	=63	=63	=63	=63	=63	=63	=63
1DM	D:maj	1r	.	.	77.16	.	guitar
=64	=64	=64	=64	=64	=64	=64	=64
1DM	D:maj	1r	.	.	78.414	.	guitar
=65	=65	=65	=65	=65	=65	=65	=65
1AM	A:maj	1r	.	.	79.668	.	guitar
=66	=66	=66	=66	=66	=66	=66	=66
1GM	G:maj	1r	.	.	80.922	.	guitar
=67	=67	=67	=67	=67	=67	=67	=67
1DM	D:maj	1r	.	.	82.176	.	guitar
=68	=68	=68	=68	=68	=68	=68	=68
1DM	D:maj	1r	.	.	83.429	.	guitar
=69	=69	=69	=69	=69	=69	=69	=69
*>Letter>A	*>Letter>A	*>Letter>A	*>Letter>A	*>Letter>A	*>Letter>A	*>Letter>A	*>Letter>A
*>Label>Verse	*>Label>Verse	*>Label>Verse	*>Label>Verse	*>Label>Verse	*>Label>Verse	*>Label>Verse	*>Label>Verse
1DM	D:maj	4f#	Hope	.	84.683	newline	voice
.	.	2f#	you	.	.	.	.
.	.	4r	.	.	.	.	.
=70	=70	=70	=70	=70	=70	=70	=70
2AM	A:maj	8e	got	.	85.937	.	voice
.	.	4d	your	.	.	.	.
.	.	8r	.	.	.	.	.
2GM	G:maj	4e	things	.	86.564	.	voice
.	.	8d	to-	.	.	.	.
.	.	[8f#	-ge-	(E	.	.	.
=71	=71	=71	=71	=71	=71	=71	=71
1DM	D:maj	8f#]	_	.	87.19	.	voice
.	.	4.d	-ther.	e)	.	.	.
.	.	2r	.	.	.	.	.
=72	=72	=72	=72	=72	=72	=72	=72
1DM	D:maj	1r	.	.	88.444	.	voice
=73	=73	=73	=73	=73	=73	=73	=73
1DM	D:maj	4f#	Hope	.	89.697	.	voice
.	.	4.f#	you	.	.	.	.
.	.	8r	.	.	.	.	.
.	.	4d	are	.	.	.	.
=74	=74	=74	=74	=74	=74	=74	=74
2AM	A:maj	4e	quite	.	90.951	.	voice
.	.	8d	pre-	.	.	.	.
.	.	4.f#	-pared	.	.	.	.
2GM	G:maj	.	.	.	91.578	.	voice
.	.	8d	to	.	.	.	.
.	.	[8d	die.	A	.	.	.
=75	=75	=75	=75	=75	=75	=75	=75
1DM	D:maj	4d]	_	.	92.204	.	voice
.	.	2r	.	.	.	.	.
.	.	4r	.	.	.	.	.
=76	=76	=76	=76	=76	=76	=76	=76
1DM	D:maj	1r	.	.	93.458	.	voice
=77	=77	=77	=77	=77	=77	=77	=77
1DM	D:maj	4f#	Looks	.	94.711	newline	voice
.	.	4f#	like	.	.	.	.
.	.	4r	.	.	.	.	.
.	.	4d	we're	.	.	.	.
=78	=78	=78	=78	=78	=78	=78	=78
2AM	A:maj	4e	in	.	95.966	.	voice
.	.	8d	for	.	.	.	.
.	.	4.e	na-	.	.	.	.
2GM	G:maj	.	.	.	96.593	.	voice
.	.	8d	-sty	.	.	.	.
.	.	[8f#	wea-	(E	.	.	.
=79	=79	=79	=79	=79	=79	=79	=79
1DM	D:maj	8f#]	_	.	97.22	.	voice
.	.	8d	-ther.	e)	.	.	.
.	.	2r	.	.	.	.	.
.	.	4r	.	.	.	.	.
=80	=80	=80	=80	=80	=80	=80	=80
1DM	D:maj	1r	.	.	98.474	.	voice
=81	=81	=81	=81	=81	=81	=81	=81
1DM	D:maj	4f#	One	.	99.728	.	voice
.	.	2f#	eye	A	.	.	.
.	.	4d	is	.	.	.	.
=82	=82	=82	=82	=82	=82	=82	=82
2AM	A:maj	8e	ta-	.	100.982	.	voice
.	.	4d	-ken	.	.	.	.
.	.	8r	.	.	.	.	.
2GM	G:maj	4f#	for	.	101.609	.	voice
.	.	8d	an	.	.	.	.
.	.	[8d	eye.	A	.	.	.
=83	=83	=83	=83	=83	=83	=83	=83
1DM	D:maj	8d]	_	.	102.236	.	voice
.	.	2r	.	.	.	.	.
.	.	4r	.	.	.	.	.
.	.	8r	.	.	.	.	.
=84	=84	=84	=84	=84	=84	=84	=84
1DM	D:maj	4r	.	.	103.49	.	voice
.	.	8r	.	.	.	.	.
.	.	[8f#	Well	.	.	.	.
.	.	2f#]	_	.	.	.	.
=85	=85	=85	=85	=85	=85	=85	=85
*>Letter>B	*>Letter>B	*>Letter>B	*>Letter>B	*>Letter>B	*>Letter>B	*>Letter>B	*>Letter>B
*>Label>Chorus	*>Label>Chorus	*>Label>Chorus	*>Label>Chorus	*>Label>Chorus	*>Label>Chorus	*>Label>Chorus	*>Label>Chorus
1GM	G:maj	4g	don't	.	104.744	newline	voice
.	.	4g	go	.	.	.	.
.	.	4g	'round	.	.	.	.
.	.	8e	to-	.	.	.	.
.	.	[8d	-night.	A	.	.	.
=86	=86	=86	=86	=86	=86	=86	=86
1GM	G:maj	8d]	_	.	105.978	.	voice
.	.	8e	_	.	.	.	.
.	.	4r	.	.	.	.	.
.	.	8r	.	.	.	.	.
.	.	8d	Well	.	.	.	.
.	.	4d	it's	.	.	.	.
=87	=87	=87	=87	=87	=87	=87	=87
1DM	D:maj	4f#	bound	.	107.212	.	voice
.	.	8f#	to	.	.	.	.
.	.	4f#	take	.	.	.	.
.	.	4e	your	.	.	.	.
.	.	[8d	life.	A	.	.	.
=88	=88	=88	=88	=88	=88	=88	=88
1DM	D:maj	8d]	_	.	108.447	.	voice
.	.	8B	_	.	.	.	.
.	.	2r	.	.	.	.	.
.	.	4r	.	.	.	.	.
=89	=89	=89	=89	=89	=89	=89	=89
1AM	A:maj	2.e	There's	.	109.681	.	voice
.	.	8e	a	.	.	.	.
.	.	8e	bad	.	.	.	.
=90	=90	=90	=90	=90	=90	=90	=90
1GM	G:maj	8d	_	.	110.915	.	voice
.	.	4.d	moon	.	.	.	.
.	.	4d	on	.	.	.	.
.	.	8d	the	.	.	.	.
.	.	[8d	rise.	A	.	.	.
=91	=91	=91	=91	=91	=91	=91	=91
1DM	D:maj	4d]	_	.	112.149	.	voice
.	.	2r	.	.	.	.	.
.	.	4r	.	.	.	.	.
=92	=92	=92	=92	=92	=92	=92	=92
1DM	D:maj	1r	.	.	113.384	.	voice
=93	=93	=93	=93	=93	=93	=93	=93
1GM	G:maj	4g	Don't	.	114.618	newline	voice
.	.	4g	go	.	.	.	.
.	.	4g	'round	.	.	.	.
.	.	8e	to-	.	.	.	.
.	.	[8d	-night.	A	.	.	.
=94	=94	=94	=94	=94	=94	=94	=94
1GM	G:maj	8d]	_	.	115.848	.	voice
.	.	8e	_	.	.	.	.
.	.	4r	.	.	.	.	.
.	.	8r	.	.	.	.	.
.	.	8d	Well	.	.	.	.
.	.	4d	it's	.	.	.	.
=95	=95	=95	=95	=95	=95	=95	=95
1DM	D:maj	4f#	bound	.	117.079	.	voice
.	.	8f#	to	.	.	.	.
.	.	4f#	take	.	.	.	.
.	.	4e	your	.	.	.	.
.	.	[8d	life.	A	.	.	.
=96	=96	=96	=96	=96	=96	=96	=96
1DM	D:maj	8d]	_	.	118.309	.	voice
.	.	8B	_	.	.	.	.
.	.	2r	.	.	.	.	.
.	.	4r	.	.	.	.	.
=97	=97	=97	=97	=97	=97	=97	=97
1AM	A:maj	2.e	There's	.	119.539	.	voice
.	.	8e	a	.	.	.	.
.	.	8e	bad	.	.	.	.
=98	=98	=98	=98	=98	=98	=98	=98
1GM	G:maj	8d	_	.	120.77	.	voice
.	.	4.d	moon	.	.	.	.
.	.	4d	on	.	.	.	.
.	.	8d	the	.	.	.	.
.	.	[8d	rise.	A	.	.	.
=99	=99	=99	=99	=99	=99	=99	=99
1DM	D:maj	4d]	_	.	122	.	voice
.	.	2r	.	.	.	.	.
.	.	4r	.	.	.	.	.
=100	=100	=100	=100	=100	=100	=100	=100
1DM	D:maj	1r	.	.	123.23	.	voice
1r;	1r	r;	.	.	126.768	.	r
1r;	1r	r;	.	.	132.65	.	r
*-	*-	*-	*-	*-	*-	*-	*-
!!!BillboardChartDate: 1969/05/03
!!!BillboardPeak: 2
!!!BillboardWeeksOnChart: 14
!!!COC: Creedence Clearwater Revival
!!!ENC: Nathaniel Condit-Schultz
!!!EST: Awating manual error checking and editing.
!!!OTL: Bad Moon Rising
!!!RDF**chordsym: original McGill chord annotation + (implied pitch class set, with bass pitch in first position)
!!!RDF**harmony: **recip + pitch class of root + harmonic quality
!!!RDF**leadinstrument: original McGill primary instrumentation annotation
!!!RDF**phrase: newline = linebreak in original McGill transcription
!!!RDF**timestamp: McGill audio timestamp in seconds
!!!RDT: 2017/01/12/
!!!SampleActualRank: 80
!!!SampleID#: 0852
!!!SampleTargetRank: 82
!!!MBID: 494c7af6-b4ec-4897-b4c7-4663099377e6
